src/images/svg/symbols/btc-ltc.svg

<svg width="33" height="32" viewBox="0 0 33 32" fill="none" xmlns="http://www.w3.org/2000/svg">
<path d="M2.5 11C2.5 6.02944 6.52944 2 11.5 2C16.4706 2 20.5 6.02944 20.5 11C20.5 15.9706 16.4706 20 11.5 20C6.52944 20 2.5 15.9706 2.5 11Z" fill="#F7931A"/>
<path d="M15.5439 9.88625C15.7205 8.70725 14.8222 8.07331 13.5948 7.65031L13.9931 6.05281L13.0211 5.81094L12.6329 7.36625C12.3776 7.30212 12.1154 7.2425 11.8539 7.18287L12.2448 5.61744L11.2728 5.375L10.8746 6.97194C10.6631 6.92356 10.4549 6.87631 10.2536 6.82569L10.2547 6.82062L8.91369 6.48594L8.65494 7.52431C8.65494 7.52431 9.37663 7.68969 9.36144 7.69981C9.75519 7.79825 9.82607 8.05869 9.81425 8.26569L9.36088 10.0854C9.38788 10.0921 9.42275 10.1023 9.46213 10.1174L9.35919 10.0921L8.72357 12.6414C8.67519 12.7606 8.55313 12.9401 8.2775 12.872C8.28763 12.8861 7.571 12.6959 7.571 12.6959L7.08838 13.8086L8.354 14.1241C8.58913 14.1832 8.81975 14.2451 9.04644 14.303L8.64425 15.9185L9.61569 16.1604L10.0139 14.5629C10.2794 14.6343 10.5371 14.7007 10.7891 14.7637L10.3919 16.3544L11.3639 16.5963L11.7661 14.9842C13.4244 15.2981 14.6709 15.1715 15.1957 13.6719C15.6187 12.4648 15.1749 11.7678 14.3024 11.3139C14.9381 11.1676 15.4162 10.7497 15.5439 9.88625ZM13.322 13.0014C13.0222 14.2091 10.9888 13.556 10.3295 13.3923L10.8639 11.252C11.5231 11.4168 13.6364 11.7425 13.322 13.0014ZM13.6229 9.86881C13.349 10.9674 11.657 10.4088 11.1086 10.2721L11.5923 8.3315C12.1408 8.46819 13.9087 8.723 13.6229 9.86881Z" fill="white"/>
<path d="M12.5 21C12.5 16.0294 16.5294 12 21.5 12C26.4706 12 30.5 16.0294 30.5 21C30.5 25.9706 26.4706 30 21.5 30C16.5294 30 12.5 25.9706 12.5 21Z" fill="#BFBBBB"/>
<path d="M18.3652 22.8079L17.5625 23.1195L17.9495 21.5676L18.7617 21.2413L19.9323 16.5H22.8174L21.9629 19.9852L22.7561 19.6641L22.3736 21.2109L21.5709 21.5321L21.0939 23.4913H25.4375L24.9464 25.5H17.7042L18.3652 22.8079Z" fill="white"/>
</svg>

<svg width="33" height="32" fill="none" xmlns="http://www.w3.org/2000/svg"><path d="M2.5 11a9 9 0 1 1 18 0 9 9 0 0 1-18 0Z" fill="#F7931A"/><path d="M15.544 9.886c.176-1.179-.722-1.813-1.95-2.236l.4-1.597-.973-.242-.388 1.555c-.255-.064-.518-.123-.78-.183l.392-1.566-.972-.242-.398 1.597c-.212-.048-.42-.096-.621-.146V6.82l-1.34-.335-.26 1.038s.723.166.707.176c.394.098.465.359.453.566l-.453 1.82a.87.87 0 0 1 .101.031l-.103-.025-.635 2.55c-.049.119-.17.298-.447.23.01.014-.706-.176-.706-.176l-.483 1.113 1.266.315.692.179-.402 1.615.972.242.398-1.597c.265.071.523.138.775.2l-.397 1.591.972.242.402-1.612c1.658.314 2.905.188 3.43-1.312.423-1.207-.021-1.904-.894-2.358.636-.146 1.114-.564 1.242-1.428Zm-2.222 3.115c-.3 1.208-2.333.555-2.992.391l.534-2.14c.66.165 2.772.49 2.458 1.75Zm.3-3.132c-.273 1.098-1.965.54-2.513.403l.483-1.94c.549.136 2.317.391 2.03 1.537Z" fill="#fff"/><path d="M12.5 21a9 9 0 1 1 18 0 9 9 0 0 1-18 0Z" fill="#BFBBBB"/><path d="m18.365 22.808-.802.311.387-1.551.812-.327 1.17-4.741h2.885l-.854 3.485.793-.32-.382 1.546-.803.321-.477 1.96h4.343l-.49 2.008h-7.243l.661-2.692Z" fill="#fff"/></svg>
